X: 29884
T: O'Keeffe's Mother
R: jig
M: 6/8
K: Amajor
z|cBA BAF|EAF ECE|FEC A,2E|EFA BAB|
cBA BAF|EAF ECE|FEC A,2E|FAA A2:|
d|c3 Ace|fec BcA|cdc BAF|EFA B2B|
cee Ace|fec BcA|cdc BAF|EAA A2:|

